src/assets/img/svg_sources/icon_twitter.svg

<svg width="42" height="42" viewBox="0 0 42 42" fill="none" xmlns="http://www.w3.org/2000/svg">
<circle cx="21" cy="21" r="20" stroke="#5B5B5B" stroke-width="2"/>
<path d="M27 17.2785C26.5585 17.4745 26.084 17.6065 25.586 17.666C26.0945 17.3615 26.485 16.879 26.6685 16.304C26.193 16.586 25.666 16.791 25.105 16.9015C24.6565 16.423 24.016 16.124 23.308 16.124C21.7185 16.124 20.5505 17.607 20.9095 19.1465C18.864 19.044 17.05 18.064 15.8355 16.5745C15.1905 17.681 15.501 19.1285 16.597 19.8615C16.194 19.8485 15.814 19.738 15.4825 19.5535C15.4555 20.694 16.273 21.761 17.457 21.9985C17.1105 22.0925 16.731 22.1145 16.345 22.0405C16.658 23.0185 17.567 23.73 18.645 23.75C17.61 24.5615 16.306 24.924 15 24.77C16.0895 25.4685 17.384 25.876 18.774 25.876C23.345 25.876 25.9275 22.0155 25.7715 18.553C26.2525 18.2055 26.67 17.772 27 17.2785Z" fill="#DCDCDC"/>
</svg>

<svg width="42" height="42" viewBox="0 0 42 42" fill="none" xmlns="http://www.w3.org/2000/svg"><circle cx="21" cy="21" r="20" stroke="#5B5B5B" stroke-width="2"/><path d="M27 17.279a4.915 4.915 0 0 1-1.414.387 2.466 2.466 0 0 0 1.083-1.362 4.932 4.932 0 0 1-1.564.598 2.464 2.464 0 0 0-4.195 2.245 6.99 6.99 0 0 1-5.075-2.572 2.465 2.465 0 0 0 .762 3.287 2.451 2.451 0 0 1-1.115-.308 2.464 2.464 0 0 0 1.975 2.445 2.468 2.468 0 0 1-1.112.042 2.464 2.464 0 0 0 2.3 1.709A4.95 4.95 0 0 1 15 24.77a6.97 6.97 0 0 0 3.774 1.106c4.571 0 7.153-3.86 6.997-7.323A5.012 5.012 0 0 0 27 17.279z" fill="#DCDCDC"/></svg>
